X:1
T:O'Connell's Trip to Parliament
R:Reel
M:4/4
L:1/8
Q:150
Z:Allan Farrell
S:Tickle Harbor - Brule Boys in Paris - Track 3
K:Dmix
|: dBAF G2FG | Adde fded | dBAF G2FG | AFGE FDD2 :| f3a gfed | ^cdef g2fe |
| defg a2ge | a2ge fdde  || f3a gfed | ^cdef g2fg | a2ge a2ge | a2ge fdde |] 

